X: 129010
T: GARCON VOLANGE
%R: jig
B: James Kerr "Merry Melodies" v.1 p.29 s.0 #10
Z: 2017 John Chambers <jc:trillian.mit.edu>
M: 6/8
L: 1/8
K: G
|: vdB |\
GdB GdB | Adc Adc | Bdg [1 gfg | baa a :|[2 fef | ggg g2z H|:\
b3 g3 | aaa a2z | c'3 f3 | ggg g2z :|
d3 cBc | d3 cBc | d2d g2d | bag fed |\
c3 A^GA | c3 A^GA | ced cBA | GGG "_D.C."G |]

%%sep 1 1 500
%%sep 1 1 500

